X:1
T:Title
%%score ( 1 2 ) ( 3 4 )
L:1/8
Q:1/4=90
M:2/4
K:Bb
V:1 treble nm="Grand Piano, Soprano"
V:2 treble 
V:3 bass nm="Choir Pad, Bass"
V:4 bass 
V:1
 [EG]>[EG] [FB][D_A] | [EG]3 [EG] | [Ec]2 BG | [DF]4 | [EG]>[EG] [FB][D_A] | [EG]3 [CF] | %6
w: By~John~Harrison~Tenney * * *||||||
 [B,E]2 [B,D]2 | [B,E]4 | [DF]>[DF] [FB][Fc] | [Fd]3 [Fd] | [Fe]2 [Fd]2 | [Fc]4 | %12
w: ||||||
 [DB]>[DB] [Fc][Fc] | [Fd]3 [Gc] | [FB]2 [EA]2 | [DB]4 | [EG]>[EG] [FB][D_A] | [EG]3 [EG] | %18
w: ||||||
 [Ec]2 BG | [DF]3 [DF] | [EG]2 [D_A][EB] | [Ec]3 [Ee] | [EG]2 [DF]2 | E4- | E4 |] %25
w: |||||||
V:2
 x4 | x4 | z2 E2 | x4 | x4 | x4 | x4 | x4 | x4 | x4 | x4 | x4 | x4 | x4 | x4 | x4 | x4 | x4 | %18
 z2 E2 | x4 | x4 | x4 | x4 | x4 | x4 |] %25
V:3
 [E,B,]>[E,B,] [D,B,][B,,B,] | [E,B,]3 [E,B,] | z2 .G,2 | [B,,B,]4 | [E,B,]>[E,B,] [D,B,][B,,B,] | %5
 [E,B,]3 [_A,,_A,] | [B,,G,]2 [B,,F,]2 | [E,G,]4 | [B,,B,]>[B,,B,] [D,B,][F,A,] | B,3 B, | %10
 [A,C]2 B,2 | [F,A,]4 | [G,B,]>[G,B,] [F,A,][F,A,] | B,3 [E,E] | [F,D]2 [F,C]2 | [B,,B,]4 | %16
 [E,B,]>[E,B,] [D,B,][B,,B,] | [E,B,][E,B,] [E,B,][E,B,] | [_A,,_A,]2 [E,G,][E,B,] | %19
 [B,,B,]>[B,,B,] [B,,B,][B,,B,] | [E,B,]2 [F,B,][F,B,] | _A,>A, A,[=A,C] | B,2 [B,,_A,]2 | %23
 [E,G,]4- | [E,G,]4 |] %25
V:4
 x4 | x4 | [_A,,_A,]2 E,-[E,B,] | x4 | x4 | x4 | x4 | x4 | x4 | x4 | x4 | x4 | x4 | x4 | x4 | x4 | %16
 x4 | x4 | x4 | x4 | x4 | x4 | x4 | x4 | x4 |] %25

